**kern	**kern
*staff1	*staff1
*clefG2	*clefG2
*>variant[chorus1,chorus2,chorus3,head]
*k[]	*k[]
*F:	*F:
*M4/4	*M4/4
*>head	*>head
{[8ff\	.
=1	=1
4ff\]	1F:maj
8cc/L	.
8a/J	.
4ee\	.
8cc/L	.
8a/J	.
=2||	=2||
8dd\L	2E:o7
8ee\	.
8b\	.
8dd\J	.
8dd-/L	2A:dom
8b-/	.
8g/	.
[8a/J	.
=3	=3
4a/]	2D:min
8f/L	.
8d/J	.
8g/L	2G:dom
8a/	.
8f/	.
8e/J	.
=4	=4
12e-/L	2C:min
12g/	.
12b-/J	.
8dd\L	.
8dd-\J}	.
8r	2F:dom
{8f/	.
12f/L	.
12g/	.
12f/J	.
=5	=5
4cc\	1B-:dom
8b-/L	.
8f/J	.
8a-/L	.
8B-/J	.
8r	.
8g/	.
=6	=6
8ee-\L	2B-:dom
8dd-\	.
8b-\	.
8bn\J	.
8cc/L	2E-:dom
8f/	.
8g/	.
[8a/J	.
=7	=7
4a/]	1A:min
8e/L	.
8c/J	.
4d/}	.
4r	.
=8	=8
{4dd-\	2A-:min
8b/L	.
8g-/J	.
4b-\	2D-:dom
8r	.
8a-/	.
=9	=9
6g/	1G:min
6ff\	.
6ff\	.
8ff\L	.
8dd\	.
8b-\	.
8f\J	.
=10	=10
8a/L	1C:dom
8g/	.
8cc/	.
8b-/J	.
4.ee-\}	.
8r	.
=11	=11
{4cc\	1F:dom
8a/L	.
8f/J	.
4.g/	.
[8dd\	.
=12	=12
4dd\]	2G:min
8b-/L	.
8g/J	.
4a/	2C:dom
8r	.
8c/	.
*>chorus1	*>chorus1
=13	=13
12e/L	1F:maj
12f/	.
12g/J	.
8f/L	.
8c/J	.
8e/L	.
8f/	.
8A#/	.
8B/J	.
=14||	=14||
8d/L	2E:h7
8B/J	.
12c#/L	.
12e/	.
12g/J	.
8b-\L	2A:dom
16cc\L	.
16b-\J	.
8a\	.
8f\J	.
=15	=15
8g/L	2D:min
8c/	.
8d/	.
[8e-/J	.
4e-/]}	2G:dom
4r	.
=16	=16
2r	2C:min
4r	2F:dom
{24f/LL	.
24f/	.
24f/JJ	.
8r	.
=17	=17
6b\	1B-:dom
6b-\	.
6f/	.
4bn\	.
8b-/L	.
8f/J	.
=18	=18
8g/L	2B-:dom
8a-/	.
8f/	.
16g/L	.
16f/JJ	.
8e-/L	2E-:dom
8c/J	.
24B-/LL	.
24c/	.
24B-/JJ	.
8F/	.
=19	=19
4A/	1A:min
12c/L	.
12e/	.
12g/J	.
8f/L	.
8c/	.
8d/	.
[8e-/J	.
=20	=20
4e-/]}	2A-:min
4r	.
4r	2D-:dom
{8c#/L	.
8d/J	.
=21	=21
8b-\L	1G:min
16cc\L	.
16b-\J	.
8a\	.
8g\J	.
8cc/L	.
8g/J}	.
4r	.
=22	=22
8r	1C:dom
{8d#/	.
16e/LL	.
16f#/	.
16g/	.
16a#/JJ	.
16ee\LL	.
16ff\	.
16dd\	.
16ee-\JJ	.
16een\LL	.
32cc\L	.
32cc#\J	.
16dd\	.
16ccn\JJ	.
=23	=23
16b-\LL	1F:dom
16g\	.
16cc\	.
16b-\JJ	.
16a/LL	.
16f/	.
16d-/	.
16B-/JJ	.
4c/}	.
4r	.
=24	=24
2r	2G:min
4r	2C:dom
8r	.
*>chorus2	*>chorus2
{8e/	.
=25	=25
12f/L	1F:maj
12a/	.
12cc/J	.
16ee\LL	.
16ff\	.
16ff#\	.
[16gg\JJ	.
8gg\L]	.
16ff#\L	.
16ffn\J	.
8ee\	.
8dd\J	.
=26||	=26||
8dd-/L	2E:h7
8e/	.
8g/	.
8a/J	.
8b-\L	.
16cc\L	.
16b-\J	2A:dom
8a\	.
8f\J	.
=27	=27
24g/LL	2D:min
24a-/	.
24g/JJ	.
8f/L	.
8d/	.
[8f/J	.
4f/]	2G:dom
24g/LL	.
24an/	.
24g/JJ	.
8f/	.
=28	=28
8e-/L	2C:min
[8f/J	.
2f/]}	2F:dom
4r	.
=29	=29
8r	1B-:dom
{[8d/L	.
8d/]	.
16f/L	.
16a-/JJ	.
8cc\L	.
8b-\J	.
24a-/LL	.
24b-/	.
24a-/JJ	.
8f/	.
=30	=30
8g/L	2B-:dom
8f/J	.
8r	.
8e-/	.
6c/	2E-:dom
6B-/	.
6F/	.
=31	=31
4A/	1A:min
20c/LL	.
20e/	.
20g/	.
20a/	.
20b-/JJ	.
8cc/L	.
8g/	.
8e/	.
8c/J	.
=32	=32
8dd-\L	2A-:min
8b\J	.
12g-/L	.
12e-/	.
12B/J	.
8b-/L	2D-:dom
8a-/J}	.
4r	.
=33	=33
8r	1G:min
{8d#/	.
20e/LL	.
20f#/	.
20g/	.
20a#/	.
20dd/JJ	.
4ff\	.
8r	.
8e/	.
=34	=34
16f/LL	1C:dom
16g/JJ	.
24a#\LL	.
24b\	.
24cc\JJ	.
16dd-\LL	.
16cc\	.
16b-\	.
16a#\JJ	.
16g/LL	.
16f/	.
16e/	.
16G/JJ	.
16B-/LL	.
16d-/	.
16c/	.
16A/JJ	.
=35	=35
16B-/LL	1F:maj
16a/	.
16e/	.
16f/JJ	.
4g/}	.
4r	.
8r	.
{[8c/	.
=36	=36
2.c/]	2G:min
.	2C:dom
*>chorus3	*>chorus3
8d/L	.
8c/J	.
=37	=37
8a/L	1F:maj
16cc/L	.
16a/J	.
8g/	.
8f/J	.
4r	.
8r	.
8a/	.
=38||	=38||
24b-\LL	2E:h7
24cc\	.
24b-\JJ	.
8a/L	.
8g/	.
8f/J	.
8e/L	2A:dom
8d/	.
8c#/	.
8e/J	.
=39	=39
8d/L	2D:min
8c#/	.
8d/	.
8e/J	.
8f/L	2G:dom
8g/	.
8a/	.
8cn/J	.
=40	=40
8d/L	2C:min
[8e-/J	.
4e-/]}	.
2r	1F:dom
=41	=41
8r	1B-:dom
{[8cc\L	.
8cc\J]	.
8r	.
8ff\	.
24ee-\LL	.
24cc\	.
24b-\JJ	.
8a-/L	.
8f/J	.
=42	=42
4r	2B-:min
8r	.
8c/	.
8b\L	2E-:dom
8b-\J	.
24a-/LL	.
24b-/	.
24a-/JJ	.
8f/	.
=43	=43
[4a/	1A:min
8a/]	.
24cc/LL	.
24a/	.
24e/JJ	.
8d/L	.
[8d/J	.
4d/]}	.
=44	=44
2r	2A-:min
2r	2D-:dom
=45	=45
8r	1G:min
{8d#/	.
20e/LL	.
20g/	.
20a/	.
20b-/	.
20bn/JJ	.
16cc\LL	.
16b\	.
16b-\JJ	.
16r	.
8r	.
8e-/	.
=46	=46
16e/LL	1C:dom
16g/JJ	.
24a\LL	.
24b-\	.
24bn\JJ	.
16cc\LL	.
16b\	.
16b-\	.
16a\JJ	.
16g/LL	.
16f/	.
16e/	.
16g/JJ	.
16b-/LL	.
16dd-/	.
16g/	.
16a/JJ	.
=47	=47
24b-\LL	1F:maj
24cc\	.
24b-\JJ	.
16a/LL	.
16g/J	.
8f/J	.
8r	.
8r	.
[4.e/	.
=48	=48
4e/]	2G:min
16g/LL	.
16f/	.
16e/	.
16d/JJ	.
8d-/L	.
16f/L	.
16d-/JJ	2C:dom
16c/LL	.
16B-/	.
16A/	.
16c/JJ	.
=49	=49
16e/LL	1F:maj
16f/	.
16d/	.
16e/JJ	.
4c/}	.
2r	.
==	==
*-	*-
